static/lg.svg

<svg width="36" height="41" fill="none"
    xmlns="http://www.w3.org/2000/svg">
    <path d="m7.587 5.939 1.422-.821L17.859 0l8.85 5.118 8.85 5.124v10.026l-5.823-3.381v-3.278l-5.939-3.434-5.938-3.442-5.939 3.442-4.333 2.504v-6.74ZM19.461 33.297l4.327-2.505 5.938-3.434v-3.733l5.823 3.38v3.719l-8.85 5.125-1.415.821-5.823-3.373Z" fill="#DC0000"/>
    <path d="m17.854 40.968-8.85-5.118-8.85-5.125V10.241l5.823-3.374v20.492l5.938 3.434.061.034 5.878 3.407 5.823 3.367-5.823 3.367Z" fill="#000"/>
    <path d="M13.41 7.75H7.587v18.496h5.823V7.75Z" fill="#DC0000"/>
    <path d="m28.205 31.611-2.911 5.057L7.587 26.249l2.911-5.05 17.707 10.412ZM35.554 29.811l-16.941-9.842v-6.74l16.941 9.842v6.74Z" fill="#DC0000"/>
</svg>

<svg width="36" height="41" viewBox="0 0 36 41" fill="none"
    xmlns="http://www.w3.org/2000/svg">
    <path d="M7.58698 5.939L9.00897 5.118L17.859 0L26.709 5.118L35.559 10.242V20.268L29.736 16.887V13.609L23.797 10.175L17.859 6.733L11.92 10.175L7.58698 12.679V5.939Z" fill="#DC0000"/>
    <path d="M19.461 33.297L23.788 30.792L29.726 27.358V23.625L35.549 27.005V30.724L26.699 35.849L25.284 36.67L19.461 33.297Z" fill="#DC0000"/>
    <path d="M17.854 40.968L9.00403 35.85L0.153992 30.725V20.483V10.241L5.97699 6.867V13.607V20.483V23.286V27.359L11.915 30.793L11.976 30.827L17.854 34.234L23.677 37.601L17.854 40.968Z" fill="black"/>
    <path d="M13.41 7.75H7.58698V26.246H13.41V7.75Z" fill="#DC0000"/>
    <path d="M28.205 31.611L25.294 36.668L7.58698 26.249L10.498 21.199L28.205 31.611Z" fill="#DC0000"/>
    <path d="M35.554 29.811L18.613 19.969V13.229L35.554 23.071V29.811Z" fill="#DC0000"/>
</svg>
